!!!!SEGMENT: pl-kk--kk-i-31--001-002_anonim--missa-et-in-terra.krn
!!!cenid: 17xx:2232
!!!COM: Anonim
!!!COM-rismID: pe30004985
!!!CDT:
!!!CNT:
!!!OPR: Missa
!!!OTL: Et in terra
!!!OMV: 002
!!!PDT:
!!!AGN: Sacred; Mass
!!!YEC: Copyright 2022 Narodowy Instytut Fryderyka Chopina (https://polishscores.org)
!!!YEM: License CC-BY-4.0 (https://creativecommons.org/licenses/by/4.0)
!!!SMS-siglum: PL-Kk
!!!SMS-shelfmark: Kk.I.31
!!!SMS-shelfwork: 001-002 M
!!!SMS-variant:
!!!SMS-altvar:
!!!NIFC-rismSourceID: 1001156550
!!!NIFC-rismChildID: 1001156550
!!!NIFC-islandoraID: pl-kk:15489
!!!URL-pdf-islandora: https://repozytorium.nifc.pl/islandora/object/pl-kk%3A15489/datastream/PDF/view
!!!URL-scan: https://polish.musicsources.pl/pl/lokalizacje/galeria/rekopisy/7124/1 @EN{Scan on Polish Music Sources Website} @PL{Skany w portalu Dziedzictwo Muzyki Polskiej w otwartym dostępie}
!!!IIIF:
!!!ONB-nifc: UWAGA: części Mszy: 1. Kyrie, 2. Et in terra, 3. Patrem, 4. Sanctus, 5. Agnus Dei
!!!AIN: 1 alto 2 empty 1 tenor 1 vox
!!!key:
**kern	**text	**kern	**text	**kern	**text	**kern	**text	**kern	**text
*part5	*	*part4	*	*part3	*	*part2	*	*part1	*
*staff5	*	*staff4	*	*staff3	*	*staff2	*	*staff1	*
*Iempty	*	*Iempty	*	*Itenor	*	*Ialto	*	*Ivox	*
*I"Baſso Ripieno	*	*I"Baſso.	*	*I"Tenore	*	*I"Alto	*	*I"Canto	*
*I'b rip	*	*I'B	*	*I'T	*	*I'A	*	*I'S	*
*clefF4	*	*clefF4	*	*clefC4	*	*clefC3	*	*clefC1	*
*k[]	*	*k[]	*	*k[]	*	*k[]	*	*k[]	*
*C:	*	*C:	*	*C:	*	*C:	*	*C:	*
*M2/1	*	*M2/1	*	*M2/1	*	*M2/1	*	*M2/1	*
*met(c)	*	*	*	*	*	*	*	*	*
=1-	=1-	=1-	=1-	=1-	=1-	=1-	=1-	=1-	=1-
*all\right	*	*all\right	*	*all\right	*	*all\right	*	*all\right	*
!LO:TX:t=P:problem=kreska pseudotaktowa	!	!	!	!	!	!	!	!	!
*	*	*met(c)	*	*	*	*	*	*	*
!	!	!LO:TX:t=P:problem=kreska pseudotaktowa	!	!	!	!	!	!	!
*	*	*	*	*met(c)	*	*	*	*	*
*	*	*	*	*	*	*met(c)	*	*met(c)	*
!	!	!	!	!LO:TX:t=P:problem=kreska pseudotaktowa	!	!	!	!LO:TX:t=P:problem=kreska pseudotaktowa	!
1r	.	1r	.	0r	.	4c\	Et	1r	.
.	.	.	.	.	.	4c\	in	.	.
.	.	.	.	.	.	4d\	ter-	.	.
!	!	!	!	!	!	!LO:TX:t=P:problem=kreska pseudotaktowa	!	!	!
.	.	.	.	.	.	4d\	-ra	.	.
4C/	Et	4C/	Et	.	.	4e\	pax	4g/	Et
4En/	in	4E\	in	.	.	4e\	ho-	4g/	in
*	*	*	*	*	*	*2\right	*	*	*
!	!	!	!	!	!	!LO:TX:t=P:problem=kreska pseudotaktowa	!	!	!
4D\	ter-	4D\	ter-	.	.	2f\	-mi-	4a\	ter-
!LO:TX:t=P:problem=kreska pseudotaktowa	!	!LO:TX:t=P:problem=kreska pseudotaktowa	!	!	!	!	!	!LO:TX:t=P:problem=kreska pseudotaktowa	!
4F\	-ra	4F\	-ra	.	.	.	.	4a\	-ra
=2-	=2-	=2-	=2-	=2-	=2-	=2-	=2-	=2-	=2-
4E,<\	pax	4E,<\	pax	4G/	Et	2g\	-ni-	4b\	pax
4G\	ho-	4G\	ho-	4B\	in	.	.	4b\	ho-
*	*	*	*	*	*	*	*	*2\right	*
!	!	!	!	!	!	!	!	!LO:TX:t=P:problem=kreska pseudotaktowa	!
8F\	-mi-	8F\	-mi-	4A\	ter-	4a\	-bus	2cc\	-mi-
8F\	-ni-	8F\	-ni-	.	.	.	.	.	.
!	!	!	!	!LO:TX:t=P:problem=kreska pseudotaktowa	!	!LO:TX:t=P:problem=kreska pseudotaktowa	!	!	!
8A,<\	-b(us)	8A,<\	-bus	4c\	-ra	4e\	ho-	.	.
*	*ij	*	*	*	*	*	*	*	*
!LO:TX:t=P:problem=kreska pseudotaktowa	!	!LO:TX:t=P:problem=kreska pseudotaktowa	!	!	!	!	!	!	!
8A\	ho-	8A\	ho-	.	.	.	.	.	.
4.G\	-mi-	4.G\	-mi-	4B\	pax	4.g\	-mi-	2dd\	-ni-
.	.	.	.	4d\	ho-	.	.	.	.
8GG,</	-ni-	8G\	-ni-	.	.	8g\	-ni-	.	.
!	!	!LO:LB:g=original	!	!	!	!	!	!	!
!LO:TX:t=P:problem=kreska pseudotaktowa	!	!LO:TX:t=P:problem=kreska pseudotaktowa	!	!	!	!LO:TX:t=P:problem=kreska pseudotaktowa	!	!LO:TX:t=P:problem=kreska pseudotaktowa	!
2C/	-bus	2C/	-bus	8c\	-mi-	2g\	-bus	2ee\	-bus
*	*Xij	*	*	*	*	*	*	*	*
.	.	.	.	8c\	-ni-	.	.	.	.
!	!	!	!	!LO:TX:t=P:problem=kreska pseudotaktowa	!	!	!	!	!
.	.	.	.	4e\	-bus	.	.	.	.
=3-	=3-	=3-	=3-	=3-	=3-	=3-	=3-	=3-	=3-
!	!	!	!	!	!	!LO:N:xstem:cue	!	!	!
4r	.	4r	.	8e\	bo-	4g\	.	4ee\	bo-
.	.	.	.	8e\	-nae	.	.	.	.
8A\	bo-	8A\	bo-	8c\	bo-	4.a\	bo-	4ee\	-nae
8A,<\	-nae	8A\	-nae	8c\	-nae	.	.	.	.
*	*ij	*	*	*	*	*	*	*	*
8F\	bo-	8F\	bo-	8d\	vo-	.	.	4dd\	vo-
8F,<\	-nae	8F\	-nae	8d\	-lun-	8a\	-nae	.	.
*	*Xij	*	*	*	*	*	*	*	*
!	!	!	!	!LO:TX:t=P:problem=kreska pseudotaktowa	!	!LO:TX:t=P:problem=kreska pseudotaktowa	!	!LO:TX:t=P:problem=kreska pseudotaktowa	!
8G\	Vo-	8G\	vo-	4B\	-ta-	4g\	vo-	4dd\	-lun-
!LO:TX:t=P:problem=kreska pseudotaktowa	!	!LO:TX:t=P:problem=kreska pseudotaktowa	!	!	!	!	!	!	!
8G\	-lun-	8G\	-lun-	.	.	.	.	.	.
!LO:LB:g=original	!	!	!	!	!	!LO:N:xstem:cue	!	!	!
4E\	-ta-	4E\	-ta-	8c\	-tis	8g\	.	2cc\	-ta-
.	.	.	.	8c\	lau-	8g\	-lun-	.	.
8F,<\	-tis	8F,<\	-tis	4A\	-da-	2f\	-ta-	.	.
8F\	Lau-	8F\	lau-	.	.	.	.	.	.
4D\	-da-	4D\	-da-	8B\	-mus	.	.	4.b\	-tis
.	.	.	.	8B\	lau-	.	.	.	.
!	!	!	!	!	!	!LO:TX:t=P:problem=nuta przekreślona	!	!	!
8E,<\	-m(us)	8E,<\	-mus	2G/	-da-	2e\	-tis	.	.
*	*ij	*	*	*	*	*	*	*	*
!LO:TX:t=P:problem=kreska pseudotaktowa	!	!LO:TX:t=P:problem=kreska pseudotaktowa	!	!	!	!	!	!LO:TX:t=P:problem=kreska pseudotaktowa	!
8E\	Lau-	8E\	lau-	.	.	.	.	8b\	lau-
=4-	=4-	=4-	=4-	=4-	=4-	=4-	=4-	=4-	=4-
4C/	-da-	4C/	-da-	.	.	.	.	4.a\	-da-
4D/	-mus	4D/	-m(us)	4F#X/	.	4d\	lau-	.	.
*	*Xij	*	*	*	*	*	*	*	*
.	.	.	.	.	.	.	.	8a\	-mus
!	!	!	!	!	!	!	!	!LO:TX:t=P:problem=kreska pseudotaktowa	!
4GG,</	Te	4GG,</	te	4.B\	.	4.d\	-da-	2g/	te
8GG/	be-	8GG/	be-	.	.	.	.	.	.
!LO:TX:t=P:problem=kreska pseudotaktowa	!	!LO:TX:t=P:problem=kreska pseudotaktowa	!	!LO:TX:t=P:problem=kreska pseudotaktowa	!	!LO:TX:t=P:problem=kreska pseudotaktowa	!	!	!
8GG/	-ne-	8GG/	-ne-	8B\	-mus	8d\	-m(us)	.	.
4AA/	-di-	4AA/	-di-	2A/	te	4c\	te	8e/	be-
.	.	.	.	.	.	.	.	8e/	-ne-
8AA/	-ci-	8AA/	-ci-	.	.	8c\	be-	4f#X/	-di-
8AA/	-m(us)	8AA/	-mus	.	.	8c\	-ne-	.	.
!	!	!	!	!LO:TX:t=P:problem=kreska pseudotaktowa	!	!	!	!	!
4BB/	Te	4BB,</	te	2r	.	4d\	-di-	8f#/	-ci-
.	.	.	.	.	.	.	.	8f#/	-mus
!	!	!	!	!	!	!	!	!LO:TX:t=P:problem=kreska pseudotaktowa	!
8BB/	a-	8BB/	a-	.	.	8d\	-ci-	4g\	te
!LO:TX:t=P:problem=kreska pseudotaktowa	!	!LO:TX:t=P:problem=kreska pseudotaktowa	!	!	!	!LO:TX:t=P:problem=kreska pseudotaktowa	!	!	!
8BB/	-do-	8BB/	-do-	.	.	8d\	-m(us)	.	.
=5-	=5-	=5-	=5-	=5-	=5-	=5-	=5-	=5-	=5-
4.C/	-ra-	4.C/	-ra-	1r	.	4e\	te	8g\	a-
.	.	.	.	.	.	.	.	8g\	-do-
.	.	.	.	.	.	8e\	a-	4.a\	-ra-
8C/	-m(us)	8C/	-mus	.	.	8e\	-do-	.	.
*2\right	*	*	*	*	*	*	*	*	*
!LO:TX:t=P:problem=kreska pseudotaktowa	!	!LO:TX:t=P:problem=kreska pseudotaktowa	!	!	!	!LO:LB:g=original	!	!	!
2D\	Te	2D/	te	.	.	4.f\	-ra-	.	.
.	.	.	.	.	.	.	.	8a\	-mus
!	!	!	!	!	!	!	!	!LO:LB:g=original	!
.	.	.	.	.	.	.	.	2b\	te
!	!	!	!	!	!	!LO:TX:t=P:problem=kreska pseudotaktowa	!	!	!
.	.	.	.	.	.	8f\	-mus	.	.
*	*	*	*	*2\right	*	*	*	*	*
4E\	glo-	4E\	glo-	2e\	glo-	4g\	te	.	.
8C/	-ri-	8C/	-ri-	.	.	4a\	glo-	4cc\	glo-
8C/	-fi-	8C/	-fi-	.	.	.	.	.	.
!	!	!LO:LB:g=original	!	!LO:TX:t=P:problem=kreska pseudotaktowa	!	!	!	!	!
4D/	-ca-	4D/	-ca-	2d\	-ri-	8f#X\	-ri-	8a\	-ri-
.	.	.	.	.	.	8f#\	-fi-	8a\	-fi-
*custos:C	*	*	*	*	*	*	*	*	*
!LO:TX:t=P:problem=kreska pseudotaktowa	!	!LO:TX:t=P:problem=kreska pseudotaktowa	!	!	!	!LO:TX:t=P:problem=kreska pseudotaktowa	!	!LO:TX:t=P:problem=kreska pseudotaktowa	!
4BB,</	-m(us)	4BB/	-mus	.	.	4g\	-ca-	4b\	-ca-
!LO:LB:g=original	!	!	!	!LO:LB:g=original	!	!	!	!	!
=6-	=6-	=6-	=6-	=6-	=6-	=6-	=6-	=6-	=6-
*	*ij	*	*	*	*	*	*	*	*
4C/	glo-	4C/	glo-	2c\	-fi-	4e\	-mus	4g\	-mus
8AA/	-ri-	8AA/	-ri-	.	.	4f#X\	glo-	4a\	glo-
8AA/	-fi-	8AA/	-fi-	.	.	.	.	.	.
!	!	!	!	!LO:TX:t=P:problem=kreska pseudotaktowa	!	!	!	!	!
4BB/	-ca-	(4BB/	-ca-	2B\	-ca-	8d\	-ri-	8f#X/	-ri-
.	.	.	.	.	.	8d\	-fi-	8f#/	-fi-
!LO:TX:t=P:problem=kreska pseudotaktowa	!	!LO:TX:t=P:problem=kreska pseudotaktowa	!	!	!	!LO:TX:t=P:problem=kreska pseudotaktowa	!	!	!
4GG/	.	4GG/)	.	.	.	4e\	-ca-	2g/	-ca-
2.AA/	.	2.AA/	.	1A\	-mus	4c#X/	.	.	.
.	.	.	.	.	.	2d\	.	4f#/	.
.	.	.	.	.	.	.	.	4.e/	.
!LO:TX:t=P:problem=kreska pseudotaktowa	!	!LO:TX:t=P:problem=kreska pseudotaktowa	!	!	!	!LO:TX:t=P:problem=kreska pseudotaktowa	!	!	!
4AA/	-mus	4AA/	-mus	.	.	4c#X/	-mus	.	.
*	*Xij	*	*	*	*	*	*	*	*
!	!	!	!	!	!	!	!	!LO:TX:t=P:problem=kreska pseudotaktowa	!
.	.	.	.	.	.	.	.	8e/	-mus
=7-	=7-	=7-	=7-	=7-	=7-	=7-	=7-	=7-	=7-
4D,/	Te	4D,/	te	4A/	te	4d\	te	4f#X,/	te.
2D/	Gra-	2D/	Gra-	2d\	Gra-	2f#X\	Gra-	2a\	Gra-
8D/	-ti-	8D/	-ti-	8d\	-ti-	8f#\	-ti-	8a\	-ti-
!LO:TX:t=P:problem=kreska pseudotaktowa	!	!LO:TX:t=P:problem=kreska pseudotaktowa	!	!LO:TX:t=P:problem=kreska pseudotaktowa	!	!LO:TX:t=P:problem=kreska pseudotaktowa	!	!LO:TX:t=P:problem=kreska pseudotaktowa	!
8D/	-as	8D/	-as	8d\	-as	8f#\	-as	8a\	-as
4GG/	a-	4GG/	a-	4d\	a-	4g\	a-	4b\	a-
8GG/	-gi-	8GG/	-gi-	8d\	-gi-	8g\	-gi-	8b\	-gi-
8GG/	-m(us)	8GG/	-mus	8d\	-mus	8g\	-mus	8b\	-mus
!LO:TX:t=P:problem=kreska pseudotaktowa	!	!LO:TX:t=P:problem=kreska pseudotaktowa	!	!LO:TX:t=P:problem=kreska pseudotaktowa	!	!	!	!LO:TX:t=P:problem=kreska pseudotaktowa	!
2C/	ti-	2C/	ti-	2e\	ti-	4g\	ti-	2ccn\	ti-
!	!	!	!	!	!	!LO:TX:t=P:problem=kreska pseudotaktowa	!	!	!
.	.	.	.	.	.	4g\	-bi	.	.
=8-	=8-	=8-	=8-	=8-	=8-	=8-	=8-	=8-	=8-
4AA,</	-bi	4AA/	-bi	2e\	-bi	8.a\L	pro-	4cc\	-bi
.	.	.	.	.	.	16g\K	.	.	.
8.A\L	pro-	8.A\L	pro-	.	.	8.e\	.	2ee\	pro-
16G\Jk	.	16G\Jk	.	.	.	16fny\Jk	.	.	.
8.E\L	.	(8.E\L	.	8.e\L	pro-	4g\	.	.	.
16F\Jk	.	16F\Jk)	.	16d\Jk	.	.	.	.	.
!LO:TX:t=P:problem=kreska pseudotaktowa	!	!LO:TX:t=P:problem=kreska pseudotaktowa	!	!	!	!LO:TX:t=P:problem=kreska pseudotaktowa	!	!	!
4G\	.	4G\	.	8.B\L	.	4d\	-pter	2dd\	-pter
!	!	!	!	!LO:TX:t=P:problem=kreska pseudotaktowa	!	!	!	!	!
.	.	.	.	16c\Jk	.	.	.	.	.
4D,<\	-pter	4D,<\	-pter	4d\	-pter	4f\	Ma-	.	.
4F\	ma-	4F\	ma-	4A\	Ma-	4cny/	-gnam	2cc\	ma-
*custos:E	*	*	*	*	*	*	*	*	*
!	!	!	!	!	!	!LO:LB:g=original	!	!	!
4C,</	-gna(m)	4C/	-gnam	4c\	.	8.e\L	pro-	.	.
.	.	.	.	.	.	16d\K	.	.	.
!LO:LB:g=original	!	!	!	!LO:TX:t=P:problem=kreska pseudotaktowa	!	!	!	!	!
8.E\L	pro-	8.E\L	pro-	4G/	-gnam	8.B\	.	2b\	-gnam
!LO:TX:t=P:problem=kreska pseudotaktowa	!	!LO:TX:t=P:problem=kreska pseudotaktowa	!	!	!	!LO:TX:t=P:problem=kreska pseudotaktowa	!	!	!
16D\Jk	.	16D\Jk	.	.	.	16c\Jk	.	.	.
=9-	=9-	=9-	=9-	=9-	=9-	=9-	=9-	=9-	=9-
8.BB/L	.	8.BB/L	.	8.B\L	pro-	4d\	.	.	.
16C/Jk	.	16C/Jk	.	16A\Jk	.	.	.	.	.
4D/	.	4D/	.	8.F#X/L	.	4A/	-pter	2a\	glo-
.	.	.	.	16G/Jk	.	.	.	.	.
!	!	!LO:LB:g=original	!	!	!	!	!	!	!
4AA,/	-pter	4AA,</	-pter	4A/	-pter	4.c\	Ma-	.	.
!LO:TX:t=P:problem=kreska pseudotaktowa	!	!	!	!LO:TX:t=P:problem=kreska pseudotaktowa	!	!	!	!	!
[4C/	ma-	2C/	ma-	4E/	.	.	.	2g/	-ri-
!	!	!	!	!	!	!LO:TX:t=P:problem=kreska pseudotaktowa	!	!	!
.	.	.	.	.	.	8d\	.	.	.
4C/]	.	.	.	4c\	ma-	4e\	.	.	.
4BB/	-gna(m)	4BB/	-gnam	4d\	-gnam	4d\	-gnam	4g/	-am
!	!	!	!	!	!	!	!	!LO:LB:g=original	!
4AA/	glo-	4AA/	glo-	4c\	glo-	4e\	glo-	4a\	tu-
8FF/	-ri-	8FF/	-ri-	8A\	-ri-	8f\	-ri-	2cc\	.
!LO:TX:t=P:problem=kreska pseudotaktowa	!	!LO:TX:t=P:problem=kreska pseudotaktowa	!	!LO:TX:t=P:problem=kreska pseudotaktowa	!	!LO:TX:t=P:problem=kreska pseudotaktowa	!	!	!
8FF/	-a(m)	8FF/	-am	8A\	-am	8f\	-am	.	.
=10-	=10-	=10-	=10-	=10-	=10-	=10-	=10-	=10-	=10-
!LO:TX:t=P:problem=kreska pseudotaktowa	!	!LO:TX:t=P:problem=kreska pseudotaktowa	!	!LO:TX:t=P:problem=kreska pseudotaktowa	!	!LO:TX:t=P:problem=kreska pseudotaktowa	!	!	!
1GG/	tu-	1GG/	tu-	1G/	tu-	1d\	tu-	.	.
.	.	.	.	.	.	.	.	8b\L	.
.	.	.	.	.	.	.	.	8a\J	.
!	!	!	!	!	!	!	!	!LO:TX:t=P:problem=kreska pseudotaktowa	!
.	.	.	.	.	.	.	.	2b\	.
!	!	!	!	!LO:LB:g=original	!	!	!	!	!
4C,</	-am	4C,/	-am	4G/	-am	4e,\	-am	4cc\	-am
2C/	Do-	2C/	Do-	2c\	Do-	2e\	Do-	2g/	Do-
8C/	-mi-	8C/	-mi-	8c\	-mi-	8e\	-mi-	8g/	-mi-
!LO:TX:t=P:problem=kreska pseudotaktowa	!	!LO:TX:t=P:problem=kreska pseudotaktowa	!	!LO:TX:t=P:problem=kreska pseudotaktowa	!	!LO:TX:t=P:problem=kreska pseudotaktowa	!	!LO:TX:t=P:problem=kreska pseudotaktowa	!
8C/	-ne	8C/	-ne	8c\	-ne	8e\	-ne	8g/	-ne
=11-	=11-	=11-	=11-	=11-	=11-	=11-	=11-	=11-	=11-
4G\	De-	4G\	De-	4B\	De-	4d\	De-	4g/	De-
4E,<\	-us	4E\	-us	4c\	-us	4g\	-us	4g/	-us
4F,<\	Rex	4F\	Rex	4c\	Rex	4f\	Rex	8a\	Rex
.	.	.	.	.	.	.	.	8a\	Cae-
!LO:TX:t=P:problem=kreska pseudotaktowa	!	!LO:TX:t=P:problem=kreska pseudotaktowa	!	!LO:TX:t=P:problem=kreska pseudotaktowa	!	!LO:TX:t=P:problem=kreska pseudotaktowa	!	!	!
4D\	cae-	4D\	Cae-	4d\	Ca-	4f\	Cae-	2a\	-le-
*	*	*2\right	*	*	*	*	*	*	*
2E\	-le-	2E\	-le-	4B\	-le-	2e\	-le-	.	.
.	.	.	.	4B\	-ſtis	.	.	4g#X\	.
!LO:TX:t=P:problem=kreska pseudotaktowa	!	!LO:TX:t=P:problem=kreska pseudotaktowa	!	!	!	!LO:TX:t=P:problem=kreska pseudotaktowa	!	!LO:TX:t=P:problem=kreska pseudotaktowa	!
2AA/	-stis	2AA/	-ſtis	8.A\L	De-	2e\	-ſtis	2a\	-ſtis
.	.	.	.	16B\Jk	.	.	.	.	.
.	.	.	.	8.c\L	.	.	.	.	.
!	!	!	!	!LO:TX:t=P:problem=kreska pseudotaktowa	!	!	!	!	!
.	.	.	.	16d\Jk	.	.	.	.	.
=12-	=12-	=12-	=12-	=12-	=12-	=12-	=12-	=12-	=12-
*custos:D	*	*	*	*	*	*	*	*	*
2r	.	2r	.	2e\	.	4r	.	(8.g\L	De-
.	.	.	.	.	.	.	.	16a\K	.
.	.	.	.	.	.	4g\	De-	8.b\)	.
.	.	.	.	.	.	.	.	16cc\Jk	.
!LO:LB:g=original	!	!	!	!	!	!LO:TX:t=P:problem=kreska pseudotaktowa	!	!	!
(8.D\L	De-	8.D\L	De-	4A\	-us	2f\	-us	4dd\	.
16E\K	.	16E\Jk	.	.	.	.	.	.	.
!	!	!	!	!LO:TX:t=P:problem=kreska pseudotaktowa	!	!	!	!LO:TX:t=P:problem=kreska pseudotaktowa	!
8.F\	.	8.F\L	.	4d\	Pa-	.	.	4a\	-us
!LO:TX:t=P:problem=kreska pseudotaktowa	!	!LO:TX:t=P:problem=kreska pseudotaktowa	!	!	!	!	!	!	!
16G\Jk)	.	16G\Jk	.	.	.	.	.	.	.
4A\	.	4A\	.	2c\	.	2e\	Pa-	4a\	Pa-
4E\	-us	4E\	-us	.	.	.	.	4.g\	-ter
!LO:TX:t=P:problem=kreska pseudotaktowa	!	!LO:TX:t=P:problem=kreska pseudotaktowa	!	!	!	!LO:TX:t=P:problem=kreska pseudotaktowa	!	!	!
2G\	Pa-	2G\	Pa-	4d\	.	2d\	-ter	.	.
.	.	.	.	.	.	.	.	8a\	o-
!	!	!	!	!	!	!	!	!LO:TX:t=P:problem=kreska pseudotaktowa	!
.	.	.	.	2G/	-ter	.	.	4.b\	-mni-
=13-	=13-	=13-	=13-	=13-	=13-	=13-	=13-	=13-	=13-
4C,</	-ter	4C,</	-ter	.	.	4e\	om-	.	.
.	.	.	.	.	.	.	.	8a\	.
4D/	om-	4D/	om-	4d\	om-	4f\	.	2a\	-po-
4.E\	-ni-	4.E\	-ni-	4.B\	-ni-	4.e\	-ni-	.	.
!	!	!	!	!	!	!	!	!LO:TX:t=P:problem=kreska pseudotaktowa	!
.	.	.	.	.	.	.	.	4g#X\	.
!LO:TX:t=P:problem=kreska pseudotaktowa	!	!LO:TX:t=P:problem=kreska pseudotaktowa	!	!LO:TX:t=P:problem=kreska pseudotaktowa	!	!LO:TX:t=P:problem=kreska pseudotaktowa	!	!	!
8E\	-po-	8E\	-po-	8B\	-po-	8e\	-po-	.	.
4AA,/	-tens	4AA/	-tens	4A\	-tens	2e\	-tens	2a\	-tens
4.A\	D(o-	4.A\	D(o-	4.c\	Do-	.	.	.	.
!	!	!	!	!	!	!LO:LB:g=original	!	!LO:TX:t=P:problem=kreska pseudotaktowa	!
.	.	.	.	.	.	4.e\	Do-	2r	.
8A\	-mi)-	8A\	-mi)-	8c\	-mi-	.	.	.	.
!LO:TX:t=P:problem=kreska pseudotaktowa	!	!LO:TX:t=P:problem=kreska pseudotaktowa	!	!LO:TX:t=P:problem=kreska pseudotaktowa	!	!	!	!	!
4G\	-ne	4G,<\	-ne	4B\	-ne	.	.	.	.
!	!	!	!	!	!	!LO:TX:t=P:problem=kreska pseudotaktowa	!	!	!
.	.	.	.	.	.	8e\	-mi-	.	.
!	!	!LO:LB:g=original	!	!	!	!	!	!	!
=14-	=14-	=14-	=14-	=14-	=14-	=14-	=14-	=14-	=14-
!	!	!	!	!	!	!	!	!LO:TX:t=P:problem=kreska pseudotaktowa	!
2F\	Fi-	2F\	Fi-	2A/	Fi-	4d\	-ne	0r	.
.	.	.	.	.	.	2c/	Fi-	.	.
4F,<\	-li	4F\	-li	4A/	-li	.	.	.	.
!	!	!	!	!	!	!LO:TX:t=P:problem=kreska pseudotaktowa	!	!	!
2E\	u-	2E\	u-	2G/	v-	4c/	-li	.	.
.	.	.	.	.	.	4c/	v-	.	.
4F\	-ni-	4F\	-ni-	4A/	-ni-	4c/	-ni-	.	.
4.D/	-ge-	4.D/	-ge-	4A/	-ge-	4.f\	-ge-	.	.
!	!	!	!	!LO:TX:t=P:problem=kreska pseudotaktowa	!	!	!	!	!
.	.	.	.	4B\	-ni-	.	.	.	.
!LO:TX:t=P:problem=kreska pseudotaktowa	!	!LO:TX:t=P:problem=kreska pseudotaktowa	!	!	!	!	!	!	!
8D/	-ni-	8D/	-ni-	.	.	8f\	.	.	.
!	!	!	!	!LO:LB:g=original	!	!	!	!LO:LB:g=original	!
=15-	=15-	=15-	=15-	=15-	=15-	=15-	=15-	=15-	=15-
2C,</	-te	2C/	-te	2c\	-te	4.e\	.	2gny/	Je-
.	.	.	.	.	.	8d\	-ni-	.	.
!	!	!	!	!	!	!	!	!LO:TX:t=P:problem=kreska pseudotaktowa	!
4F\	Je-	4F\	Je-	4r	.	4c\	-te	2a\	-ſu
!LO:TX:t=P:problem=kreska pseudotaktowa	!	!LO:TX:t=P:problem=kreska pseudotaktowa	!	!LO:TX:t=P:problem=kreska pseudotaktowa	!	!LO:TX:t=P:problem=kreska pseudotaktowa	!	!	!
4D\	-su	4D\	-ſu	4d\	Je-	4f\	Je-	.	.
*	*ij	*	*	*	*	*	*	*	*
!LO:LB:g=original	!	!	!	!	!	!	!	!	!
4G\	Je-	4G\	Je-	4B\	-ſu	4d\	-ſu	2b\	Je-
*	*	*	*	*	*	*	*ij	*	*
4E,<\	-su	4E\	-ſu	4e\	Je-	4g\	Je-	.	.
*	*Xij	*	*	*	*	*	*	*	*
!	!	!	!	!	!	!	!	!LO:TX:t=P:problem=kreska pseudotaktowa	!
4.A\	Chri-	4.A\	Chri-	4c\	-ſu	4e\	-su	2cc\	-ſu
*	*	*	*	*	*	*	*Xij	*	*
!	!	!	!	!LO:TX:t=P:problem=kreska pseudotaktowa	!	!LO:TX:t=P:problem=kreska pseudotaktowa	!	!	!
.	.	.	.	4e\	Chri-	4a\	Chri-	.	.
!LO:TX:t=P:problem=kreska pseudotaktowa	!	!LO:TX:t=P:problem=kreska pseudotaktowa	!	!	!	!	!	!	!
8G\	.	8G\	.	.	.	.	.	.	.
=16-	=16-	=16-	=16-	=16-	=16-	=16-	=16-	=16-	=16-
!	!	!	!	!	!	!LO:N:xstem:cue	!	!	!
4F\	.	4F\	.	4A\	.	8a\	.	2dd\	Chri-
.	.	.	.	.	.	8g\	.	.	.
4D\	.	4D/	.	2d\	.	4f\	.	.	.
!LO:TX:t=P:problem=kreska pseudotaktowa	!	!LO:TX:t=P:problem=kreska pseudotaktowa	!	!	!	!LO:TX:t=P:problem=kreska pseudotaktowa	!	!LO:TX:t=P:problem=kreska pseudotaktowa	!
(>4A\	.	2AA/	.	.	.	2a\	.	2ee\	.
!	!	!	!	!LO:TX:t=P:problem=kreska pseudotaktowa	!	!	!	!	!
4AA/)	.	.	.	4c#X\	.	.	.	.	.
2D\	-ste	2D/	-ste	4.d\	.	4.f\	.	2dd\	-ſte
.	.	.	.	16c#\LL	.	16e\LL	.	.	.
.	.	.	.	16B\JJ	.	16d\JJ	.	.	.
!LO:TX:t=P:problem=kreska pseudotaktowa	!	!LO:TX:t=P:problem=kreska pseudotaktowa	!	!LO:TX:t=P:problem=kreska pseudotaktowa	!	!LO:TX:t=P:problem=kreska pseudotaktowa	!	!	!
2r	.	2r	.	2A/	-ste	2e\	-ste	4.cc\	Do-
!	!	!	!	!	!	!	!	!LO:TX:t=P:problem=kreska pseudotaktowa	!
.	.	.	.	.	.	.	.	8cc\	-mi-
=17-	=17-	=17-	=17-	=17-	=17-	=17-	=17-	=17-	=17-
!LO:TX:t=P:problem=kreska pseudotaktowa	!	!	!	!	!	!	!	!	!
00r	.	00r	.	1r	.	4.g\	Do-	2b,<\	-ne
.	.	.	.	.	.	8g\	-mi-	.	.
!	!	!	!	!	!	!LO:TX:t=P:problem=kreska pseudotaktowa	!	!	!
.	.	.	.	.	.	2f\	-ne	4a\	De-
!	!	!	!	!	!	!	!	!LO:TX:t=P:problem=kreska pseudotaktowa	!
.	.	.	.	.	.	.	.	4a\	-us
.	.	.	.	4r	.	4e\	De-	8g\	A-
.	.	.	.	.	.	.	.	8g,<\	-gnus
.	.	.	.	4cny\	Fi-	4e\	-us	2cc\	De-
.	.	.	.	4G/	-li-	4d\	a-	.	.
!	!	!	!	!LO:TX:t=P:problem=kreska pseudotaktowa	!	!LO:TX:t=P:problem=kreska pseudotaktowa	!	!LO:TX:t=P:problem=kreska pseudotaktowa	!
.	.	.	.	4G/	-us	4d\	-gnus	4b\	.
=18-	=18-	=18-	=18-	=18-	=18-	=18-	=18-	=18-	=18-
.	.	.	.	4.A/	Pa-	8.c\L	De-	2cc\	-i
.	.	.	.	.	.	16d\K	.	.	.
.	.	.	.	.	.	8.e\	.	.	.
.	.	.	.	16G/LL	.	.	.	.	.
.	.	.	.	16Fny/JJ	.	16f\Jk	.	.	.
!	!	!	!	!	!	!LO:LB:g=original	!	!	!
.	.	.	.	8E/L	.	4g\	i	4r	.
.	.	.	.	8F/	.	.	.	.	.
!	!	!	!	!	!	!LO:TX:t=P:problem=kreska pseudotaktowa	!	!LO:TX:t=P:problem=kreska pseudotaktowa	!
.	.	.	.	8G/	.	4e\	.	4g\	Fi-
!	!	!	!	!LO:TX:t=P:problem=kreska pseudotaktowa	!	!	!	!	!
.	.	.	.	8E/J	.	.	.	.	.
.	.	.	.	4F/	.	4d\	Fi-	4a\	-li-
.	.	.	.	4G/	.	4d\	-li-	4b\	-us
!	!	!	!	!LO:TX:t=P:problem=kreska pseudotaktowa	!	!	!	!LO:TX:t=P:problem=kreska pseudotaktowa	!
.	.	.	.	2C/	.	4.e\	-us	2cc\	Pa-
.	.	.	.	.	.	16d\LL	.	.	.
!	!	!	!	!	!	!LO:TX:t=P:problem=kreska pseudotaktowa	!	!	!
.	.	.	.	.	.	16c\JJ	.	.	.
=19-	=19-	=19-	=19-	=19-	=19-	=19-	=19-	=19-	=19-
2r	.	2r	.	1G/	.	8B\L	.	2dd\	.
.	.	.	.	.	.	8c\	.	.	.
.	.	.	.	.	.	8d\	.	.	.
.	.	.	.	.	.	8B\J	.	.	.
!LO:TX:t=P:problem=kreska pseudotaktowa	!	!LO:TX:t=P:problem=kreska pseudotaktowa	!	!	!	!LO:TX:t=P:problem=kreska pseudotaktowa	!	!LO:TX:t=P:problem=kreska pseudotaktowa	!
2C/	Qui	2C/	Qui	.	.	2c/	Pa-	2ee\	-tris
4D/	tol-	4D/	tol-	2F/	tris	2A/	-tris	0r	.
8D,</	-lis	8D/	-lis	.	.	.	.	.	.
8D/	pec-	8D/	pec-	.	.	.	.	.	.
!	!	!	!	!LO:TX:t=P:problem=kreska pseudotaktowa	!	!LO:TX:t=P:problem=kreska pseudotaktowa	!	!	!
4E\	-ca-	4E\	-ca-	2G/	qui	2r	.	.	.
8E,<\	-ta	8E,<\	-ta	.	.	.	.	.	.
*	*ij	*	*	*	*	*	*	*	*
!LO:TX:t=P:problem=kreska pseudotaktowa	!	!LO:TX:t=P:problem=kreska pseudotaktowa	!	!	!	!	!	!	!
8E\	pec-	8E\	pec-	.	.	.	.	.	.
=20-	=20-	=20-	=20-	=20-	=20-	=20-	=20-	=20-	=20-
4F\	-ca-	4F\	-ca-	4A/	tol-	4.f\	Mi-	.	.
4F\	-ta	4F,<\	-ta	8A/	-lis	.	.	.	.
*	*Xij	*	*	*	*	*	*	*	*
.	.	.	.	8A/	pec-	8f\	-ſe-	.	.
!LO:TX:t=P:problem=kreska pseudotaktowa	!	!LO:TX:t=P:problem=kreska pseudotaktowa	!	!LO:LB:g=original	!	!	!	!	!
2G\	mun-	2G\	mun-	4B\	-ca-	8d\	-re-	.	.
.	.	.	.	.	.	8d\	-re	.	.
.	.	.	.	8B\	-ta	2g\	No-	.	.
!	!	!	!	!LO:TX:t=P:problem=kreska pseudotaktowa	!	!	!	!	!
.	.	.	.	8B\	pec-	.	.	.	.
2A\	-di	2A\	-di	4.c\	-ca-	.	.	4.cc\	Mi-
.	.	.	.	.	.	8f#X\L	.	.	.
.	.	.	.	8c\	-ta	8e\J	.	8cc\	-ſe-
!LO:TX:t=P:problem=kreska pseudotaktowa	!	!LO:TX:t=P:problem=kreska pseudotaktowa	!	!LO:TX:t=P:problem=kreska pseudotaktowa	!	!LO:TX:t=P:problem=kreska pseudotaktowa	!	!	!
2r	.	2r	.	2d\	mun-	2f#X\	.	8a\	-re-
.	.	.	.	.	.	.	.	8a\	-re
.	.	.	.	.	.	.	.	2dd\	no-
!	!	!LO:LB:g=original	!	!	!	!	!	!	!
=21-	=21-	=21-	=21-	=21-	=21-	=21-	=21-	=21-	=21-
2r	.	2r	.	2e\	-di	2g\	-bis	.	.
.	.	.	.	.	.	.	.	8cc#X\L	.
.	.	.	.	.	.	.	.	8b\J	.
!LO:TX:t=P:problem=kreska pseudotaktowa	!	!LO:TX:t=P:problem=kreska pseudotaktowa	!	!LO:TX:t=P:problem=kreska pseudotaktowa	!	!	!	!LO:TX:t=P:problem=kreska pseudotaktowa	!
!	!	!	!	!	!	!	!	!LO:LB:g=original	!
2A\	Qui	2A\	Qui	2e\	qui	4r	.	2cc#X\	.
.	.	.	.	.	.	2a\	Qui	.	.
!LO:LB:g=original	!	!	!	!	!	!	!	!	!
4F#X\	tol-	4F#X\	tol-	2d\	tol-	.	.	8dd\	-bis
.	.	.	.	.	.	.	.	8dd\	Qui
8G,<\	-lis	8G,\	-lis	.	.	2g\	tol-	4b\	tol-
8G\	pec-	8G\	pec-	.	.	.	.	.	.
!	!	!	!	!LO:SIC:v:s=2c#	!	!	!	!	!
!	!	!	!	!LO:TX:t=P:problem=kreska pseudotaktowa	!	!	!	!	!
4E\	-ca-	4E\	-ca-	2c\	-lis	.	.	8cc#\	-lis
.	.	.	.	.	.	.	.	8cc#\	pec-
!	!	!	!	!	!	!	!	!LO:TX:t=P:problem=kreska pseudotaktowa	!
8F#,<\	-ta	8F#,\	-ta	.	.	2f#y\	-lis	4a\	-ca-
*	*ij	*	*	*	*	*	*	*	*
8F#\	pec-	8F#\	pec-	.	.	.	.	.	.
=22-	=22-	=22-	=22-	=22-	=22-	=22-	=22-	=22-	=22-
4D\	-ca-	4D\	-ca-	2B\	pec-	.	.	8b\	-ta
.	.	.	.	.	.	.	.	8b\	pec-
4E\	-ta	4E\	-ta	.	.	2e\	pec-	4.g/	-ca-
*	*Xij	*	*	*	*	*	*	*	*
(4C/	mun-	(4C/	mun-	4A/	-ca-	.	.	.	.
.	.	.	.	.	.	.	.	8g/	-ta
!LO:TX:t=P:problem=kreska pseudotaktowa	!	!LO:TX:t=P:problem=kreska pseudotaktowa	!	!LO:TX:t=P:problem=kreska pseudotaktowa	!	!LO:TX:t=P:problem=nuta przekreślona	!	!LO:TX:t=P:problem=kreska pseudotaktowa	!
4D/)	.	4D/)	.	4A/	-ta	2d\	-ca-	4f#X/	mun-
4BB,/	-di	4BB,/	-di	2G/	mun-	.	.	4g,/	-di
4.C/	Su-	4.C/	Su-	.	.	4c/	-ta	4.e/	Su-
!	!	!	!	!	!	!LO:TX:t=P:problem=kreska pseudotaktowa	!	!	!
.	.	.	.	4G/	-di	2e\	mun-	.	.
8D\L	.	8D/L	.	.	.	.	.	8f#/	.
!	!	!	!	!LO:TX:t=P:problem=kreska pseudotaktowa	!	!	!	!	!
8E\	.	8E/	.	[4G/	Su-	.	.	8g\L	.
!LO:TX:t=P:problem=kreska pseudotaktowa	!	!LO:TX:t=P:problem=kreska pseudotaktowa	!	!	!	!	!	!LO:TX:t=P:problem=kreska pseudotaktowa	!
8Fny\J	.	8Fny/J	.	.	.	.	.	8a\J	.
!	!	!	!	!	!	!LO:LB:g=original	!	!	!
=23-	=23-	=23-	=23-	=23-	=23-	=23-	=23-	=23-	=23-
!	!	!	!	!LO:N:xstem:cue	!	!	!	!	!
4.G\	.	4.G\	.	8G/]	.	4d\	-di	4.b\	.
.	.	.	.	8A/L	.	.	.	.	.
.	.	.	.	8B/	.	4.d\	Su-	.	.
8G\	-sci-	8G\	-sci-	8c/J	.	.	.	8b\	-ſci-
!LO:TX:t=P:problem=kreska pseudotaktowa	!	!LO:TX:t=P:problem=kreska pseudotaktowa	!	!	!	!	!	!LO:TX:t=P:problem=kreska pseudotaktowa	!
2D\	-pe	2D/	-pe	4.d\	.	.	.	2a\	-pe
.	.	.	.	.	.	8e\L	.	.	.
.	.	.	.	.	.	8fny\	.	.	.
!	!	!	!	!LO:TX:t=P:problem=kreska pseudotaktowa	!	!LO:TX:t=P:problem=kreska pseudotaktowa	!	!	!
.	.	.	.	8d\	-sci-	8g\J	.	.	.
4.A\	de-	4.A\	de-	2.e\	-pe	4.a\	.	4.ccny\	de-
8A\	-p(re)-	8A\	-pre-	.	.	8a\	-sci-	8cc\	-pre-
!	!	!	!	!	!	!LO:TX:t=P:problem=kreska pseudotaktowa	!	!	!
4.E\	-ca-	4.E\	-ca-	.	.	2g\	-pe	4.b\	-ca-
.	.	.	.	4.e\	de-	.	.	.	.
!LO:TX:t=P:problem=kreska pseudotaktowa	!	!LO:TX:t=P:problem=kreska pseudotaktowa	!	!	!	!	!	!LO:TX:t=P:problem=kreska pseudotaktowa	!
8E\	-ti-	8E\	-ti-	.	.	.	.	8b\	-ti-
=24-	=24-	=24-	=24-	=24-	=24-	=24-	=24-	=24-	=24-
4.F\	-o-	(4.F\	-o-	.	.	4.f\	de-	2.a\	-o-
.	.	.	.	8d\	-pre-	.	.	.	.
.	.	.	.	4.d\	-ca-	.	.	.	.
8G\	.	8G\)	.	.	.	8f\	-pre-	.	.
4A\	.	4A\	.	.	.	4.e\	-ca-	.	.
.	.	.	.	8c\	-ti-	.	.	.	.
!LO:TX:t=P:problem=kreska pseudotaktowa	!	!LO:TX:t=P:problem=kreska pseudotaktowa	!	!	!	!	!	!	!
(8E\L	-nem	4E\	-nem	2c\	-o-	.	.	2g/	-nem
*custos:G	*	*	*	*	*	*	*	*	*
!	!	!	!	!	!	!LO:TX:t=P:problem=kreska pseudotaktowa	!	!	!
8F\J)	.	.	.	.	.	8e\	-ti-	.	.
!LO:PB:g=original	!	!	!	!	!	!	!	!	!
!LO:TX:t=P:problem=skan 0016	!	!	!	!	!	!	!	!	!
2G\	no-	2G\	no-	.	.	4.d\	-o-	.	.
.	.	.	.	4B\	-nem	.	.	2g/	No-
.	.	.	.	.	.	8d\	-nem	.	.
!	!	!	!	!LO:TX:t=P:problem=kreska pseudotaktowa	!	!	!	!	!
4C,</	-ſtra(m)	4C,</	-ſtram	2A/	no-	4e\	no-	.	.
!LO:TX:t=P:problem=kreska pseudotaktowa	!	!LO:TX:t=P:problem=kreska pseudotaktowa	!	!	!	!LO:TX:t=P:problem=kreska pseudotaktowa	!	!LO:TX:t=P:problem=kreska pseudotaktowa	!
4D/	qui	4D/	qui	.	.	4d\	.	4f#X/	.
!	!	!LO:LB:g=original	!	!LO:LB:g=original	!	!	!	!	!
=25-	=25-	=25-	=25-	=25-	=25-	=25-	=25-	=25-	=25-
4BB/	Se-	4BB/	Se-	2G/	-stram	2d\	-ſtram	4g/	-ſtram
8BB/	-des	8BB/	-des	.	.	.	.	4d/	qui
8BB/	ad	8BB/	ad	.	.	.	.	.	.
!	!	!	!	!LO:TX:t=P:problem=kreska pseudotaktowa	!	!LO:TX:t=P:problem=kreska pseudotaktowa	!LO:LB:g=original	!	!
4C/	dex-	4C/	dex-	2G/	qui	2r	.	4e/	se-
8C/	-te-	8C/	-te-	.	.	.	.	8e/	-des
!LO:TX:t=P:problem=kreska pseudotaktowa	!	!LO:TX:t=P:problem=kreska pseudotaktowa	!	!	!	!	!	!LO:TX:t=P:problem=kreska pseudotaktowa	!
8BB/	-ra(m)	8BB/	-ram	.	.	.	.	8e/	ad
2AA/	Pa-	2AA/	Pa-	4A\	ſe-	2c/	Qui	4f#X/	dex-
.	.	.	.	8A\	-des	.	.	8f#/	-te-
.	.	.	.	8A\	ad	.	.	8f#/	-ram
!LO:TX:t=P:problem=kreska pseudotaktowa	!	!LO:TX:t=P:problem=kreska pseudotaktowa	!	!	!	!	!	!LO:TX:t=P:problem=kreska pseudotaktowa	!
2GG/	-tris	2GG/	-tris	4B\	dex-	4d\	ſe-	2g\	Pa-
.	.	.	.	8B\	-te-	8d\	-des	.	.
!	!	!	!	!LO:TX:t=P:problem=kreska pseudotaktowa	!	!LO:TX:t=P:problem=kreska pseudotaktowa	!	!	!
.	.	.	.	8B\	-ram	8d\	ad	.	.
=26-	=26-	=26-	=26-	=26-	=26-	=26-	=26-	=26-	=26-
!LO:TX:t=P:problem=kreska pseudotaktowa	!	!LO:TX:t=P:problem=kreska pseudotaktowa	!	!	!	!	!	!LO:N:xstem:cue	!
1r	.	1r	.	2c\	Pa-	4e\	de-	4g\	.
.	.	.	.	.	.	8e\	-xte-	2a\	-tris
.	.	.	.	.	.	8e\	-ram	.	.
!	!	!	!	!LO:TX:t=P:problem=kreska pseudotaktowa	!	!LO:TX:t=P:problem=kreska pseudotaktowa	!	!	!
.	.	.	.	2d\	-tris	2f\	Pa-	.	.
!	!	!	!	!	!	!	!	!LO:TX:t=P:problem=kreska pseudotaktowa	!
.	.	.	.	.	.	.	.	4dd\	qui
2r	.	2r	.	1e\	Mi-	2g\	.	4b\	ſe-
.	.	.	.	.	.	.	.	8b,<\	-des
.	.	.	.	.	.	.	.	8b\	ad
!LO:TX:t=P:problem=kreska pseudotaktowa	!	!LO:TX:t=P:problem=kreska pseudotaktowa	!	!	!	!LO:TX:t=P:problem=nuta przekreślona	!	!	!
2A\	Qui	2A\	Qui	.	.	1a\	.	4cc\	dex-
.	.	.	.	.	.	.	.	8cc\	-te-
!	!	!	!	!	!	!	!	!LO:TX:t=P:problem=kreska pseudotaktowa	!
.	.	.	.	.	.	.	.	8cc\	-ram
=27-	=27-	=27-	=27-	=27-	=27-	=27-	=27-	=27-	=27-
4F\	se-	4F\	ſe-	1d\	-ſe-	.	.	2a\	Pa-
8F\	-des	8F\	-des	.	.	.	.	.	.
8F\	ad	8F\	ad	.	.	.	.	.	.
!	!	!	!	!	!	!	!	!LO:TX:t=P:problem=kreska pseudotaktowa	!
4G\	dex-	4G\	dex-	.	.	1g\	.	2b,\	-tris
8G\	-te-	8G\	-te-	.	.	.	.	.	.
!LO:TX:t=P:problem=kreska pseudotaktowa	!	!LO:TX:t=P:problem=kreska pseudotaktowa	!	!	!	!	!	!	!
8F\	-ram	8F\	-ram	.	.	.	.	.	.
!	!	!	!	!LO:TX:t=P:problem=kreska pseudotaktowa	!	!	!	!	!
2E\	Pa-	2E\	Pa-	1c\	-re-	.	.	4cc\	Mi-
.	.	.	.	.	.	.	.	4b\	.
*custos:G	*	*	*	*	*	*	*	*	*
!LO:TX:t=P:problem=kreska pseudotaktowa	!	!LO:TX:t=P:problem=kreska pseudotaktowa	!	!	!	!LO:TX:t=P:problem=kreska pseudotaktowa	!	!	!
2F,<\	-tris	2F\	.	.	.	2f\	-tris	8a\L	-ſe-
.	.	.	.	.	.	.	.	8g\J	.
.	.	.	.	.	.	.	.	8fny/L	-re-
!	!	!	!	!	!	!	!	!LO:TX:t=P:problem=kreska pseudotaktowa	!
.	.	.	.	.	.	.	.	8e/J	.
!LO:LB:g=original	!	!	!	!	!	!	!	!	!
=28-	=28-	=28-	=28-	=28-	=28-	=28-	=28-	=28-	=28-
!	!	!	!	!LO:TX:t=P:problem=kreska pseudotaktowa	!	!	!	!	!
4G\	mi-	4G\	-tris	1B\	-re	1r	.	4d/	.
4F\	ſe-	4F\	.	.	.	.	.	4d/	-re
8E/L	-re-	(8E\L	Mi-	.	.	.	.	1g\	No-
8D/	.	8D\	.	.	.	.	.	.	.
8C/	.	8C\	-ſe-	.	.	.	.	.	.
!LO:TX:t=P:problem=kreska pseudotaktowa	!	!LO:TX:t=P:problem=kreska pseudotaktowa	!	!	!	!	!	!	!
8BB/J	.	8BB\J)	.	.	.	.	.	.	.
4C/	.	4C/	-re-	1A\	no-	4.e\	Quo-	.	.
4C/	-re	4C/	-re	.	.	.	.	.	.
.	.	.	.	.	.	8e\	-ni-	.	.
!LO:TX:t=P:problem=kreska pseudotaktowa	!	!LO:TX:t=P:problem=kreska pseudotaktowa	!	!	!	!LO:LB:g=original	!	!	!
2D/	no-	2D/	no-	.	.	4d\	-am	4.f#X/	.
!	!	!	!	!	!	!LO:TX:t=P:problem=kreska pseudotaktowa	!	!	!
.	.	.	.	.	.	4d\	tu	.	.
.	.	.	.	.	.	.	.	16g\LL	.
!	!	!	!	!	!	!	!	!LO:TX:t=P:problem=kreska pseudotaktowa	!
.	.	.	.	.	.	.	.	16a\JJ	.
=29-	=29-	=29-	=29-	=29-	=29-	=29-	=29-	=29-	=29-
2GG/	-bis.	2GG/	-bis	2G/	-bis	8d\	ſo-	2b\	.
.	.	.	.	.	.	8d\	-lus	.	.
.	.	.	.	.	.	2g\	San-	.	.
!LO:TX:t=P:problem=kreska pseudotaktowa	!	!LO:TX:t=P:problem=kreska pseudotaktowa	!	!	!	!	!	!	!
2r	.	2r	.	4.A/	Quo-	.	.	2.cc\	.
!	!	!	!	!	!	!LO:TX:t=P:problem=kreska pseudotaktowa	!	!	!
.	.	.	.	.	.	4f#X\	.	.	.
!	!	!	!	!LO:TX:t=P:problem=kreska pseudotaktowa	!	!	!	!	!
.	.	.	.	8A/	-ni-	.	.	.	.
2r	.	2r	.	4G/	-am	4g\	-ctus	.	.
.	.	.	.	4G/	tu	4d\	tu	4b\	.
!LO:TX:t=P:problem=kreska pseudotaktowa	!	!LO:TX:t=P:problem=kreska pseudotaktowa	!	!	!	!	!	!LO:TX:t=P:problem=kreska pseudotaktowa	!
2C/	Tu	2C/	tu	8G/	ſo-	4e\	ſo-	2cc\	bis
.	.	.	.	8G/	-lus	.	.	.	.
!	!	!	!	!	!	!LO:TX:t=P:problem=kreska pseudotaktowa	!	!	!
.	.	.	.	2c\	ſan-	4e\	-lus	.	.
!	!	!	!	!	!	!	!	!LO:LB:g=original	!
=30-	=30-	=30-	=30-	=30-	=30-	=30-	=30-	=30-	=30-
2D\	so-	2D\	ſo-	.	.	4.fny\	Do-	2r	.
.	.	.	.	4B\	.	.	.	.	.
.	.	.	.	.	.	8f\	-mi-	.	.
!LO:TX:t=P:problem=kreska pseudotaktowa	!	!LO:TX:t=P:problem=kreska pseudotaktowa	!	!	!	!LO:TX:t=P:problem=kreska pseudotaktowa	!	!LO:TX:t=P:problem=kreska pseudotaktowa	!
2E\	-lus	2E\	-lus	1c\	-ctus	2e\	-nus	2g/	tu
!	!	!LO:LB:g=original	!	!	!	!	!	!	!
2F\	Do-	2F\	Do-	.	.	4r	.	4a\	ſo-
.	.	.	.	.	.	4f\	tu	8a\	-lus
.	.	.	.	.	.	.	.	8a\	al-
!	!	!LO:TX:t=P:problem=kreska pseudotaktowa	!	!LO:TX:t=P:problem=kreska pseudotaktowa	!	!	!	!	!
4.G\	.	2G\	-mi-	2r	.	4d\	ſo-	4.b\	-tiſ-
.	.	.	.	.	.	8g\	-lus	.	.
!LO:TX:t=P:problem=kreska pseudotaktowa	!	!	!	!	!	!LO:TX:t=P:problem=kreska pseudotaktowa	!	!LO:TX:t=P:problem=kreska pseudotaktowa	!
8G\	-mi-	.	.	.	.	8f\	al-	8b\	-si-
=31-	=31-	=31-	=31-	=31-	=31-	=31-	=31-	=31-	=31-
2A\	-n(us).	2A\	-nus	4r	.	4.e\	-tiſ-	4cc,\	-mus
.	.	.	.	8A/	Je-	.	.	4cc\	al-
.	.	.	.	8A/	-ſu	8e\	-si-	.	.
!	!	!	!	!LO:LB:g=original	!	!LO:TX:t=P:problem=kreska pseudotaktowa	!	!	!
!LO:TX:t=P:problem=kreska pseudotaktowa	!	!LO:TX:t=P:problem=kreska pseudotaktowa	!	!	!	!LO:TX:b:t=Verte Subito	!	!	!
2r	.	2r	.	8.D/L	Je-	2f\	-mus	4.dd\	-tiſ-
.	.	.	.	16E/K	.	.	.	.	.
.	.	.	.	8.F/	.	.	.	.	.
!	!	!	!	!	!	!	!	!LO:TX:t=P:problem=kreska pseudotaktowa	!
.	.	.	.	.	.	.	.	8dd\	-si-
!	!	!	!	!LO:TX:t=P:problem=kreska pseudotaktowa	!	!	!	!	!
.	.	.	.	16E/Jk	.	.	.	.	.
!	!	!	!	!	!	!LO:PB:g=original	!	!	!
2r	.	2r	.	8.C/L	.	4r	.	2ee,\	-mus
.	.	.	.	16D/K	.	.	.	.	.
.	.	.	.	8.E/	.	8g\	Je-	.	.
.	.	.	.	.	.	8g\	-ſu	.	.
.	.	.	.	16F/Jk	.	.	.	.	.
!	!	!	!	!	!	!	!	!LO:TX:t=P:problem=kreska pseudotaktowa	!
4r	.	4r	.	4G/	ſu	8.d\L	Je-	2dd\	Je-
.	.	.	.	.	.	16e\K	.	.	.
!	!	!	!	!LO:TX:t=P:problem=kreska pseudotaktowa	!	!	!	!	!
8D/	JE-	8D/	Je-	4F/	.	8.f\	.	.	.
*custos:AA	*	*	*	*	*	*	*	*	*
!LO:TX:t=P:problem=kreska pseudotaktowa	!	!LO:TX:t=P:problem=kreska pseudotaktowa	!	!	!	!	!	!	!
8D/	-su	8D/	-ſu	.	.	.	.	.	.
!	!	!	!	!	!	!LO:TX:t=P:problem=kreska pseudotaktowa	!	!	!
.	.	.	.	.	.	16e\Jk	.	.	.
!LO:LB:g=original	!	!	!	!	!	!	!	!	!
=32-	=32-	=32-	=32-	=32-	=32-	=32-	=32-	=32-	=32-
8.AA/L	JE-	8.AA/L	Je-	2E/	Chri-	8.c\L	.	2cc\	-ſu
16BB/K	.	16BB/K	.	.	.	16d\K	.	.	.
8.C/	.	8.C/	.	.	.	8.e\	.	.	.
16BB/Jk	.	16BB/Jk	.	.	.	16f\Jk	.	.	.
!	!	!	!	!	!	!	!	!LO:TX:t=P:problem=kreska pseudotaktowa	!
8.GG/L	.	8.GG/L	.	4D/	.	4g\	.	2b\	Je-
16AA/K	.	16AA/K	.	.	.	.	.	.	.
!	!	!	!	!LO:TX:t=P:problem=nuta przekreślona	!	!LO:TX:t=P:problem=kreska pseudotaktowa	!	!	!
8.BB/	.	8.BB/	.	2G/	.	4d\	-ſu	.	.
!LO:TX:t=P:problem=kreska pseudotaktowa	!	!LO:TX:t=P:problem=kreska pseudotaktowa	!	!	!	!	!	!	!
16C/Jk	.	16C/Jk	.	.	.	.	.	.	.
4.D/	.	4.D/	.	.	.	2d\	Chri-	2a\	-ſu
.	.	.	.	4F#X/	.	.	.	.	.
8C/	.	8C/	.	.	.	.	.	.	.
!	!	!	!	!LO:TX:t=P:problem=kreska pseudotaktowa	!	!	!	!	!
4BB/	su	4BB/	su	2G/	.	4d\	-ſte	2.g/	Chri-
!LO:TX:t=P:problem=kreska pseudotaktowa	!	!LO:TX:t=P:problem=kreska pseudotaktowa	!	!	!	!LO:TX:t=P:problem=kreska pseudotaktowa	!	!	!
4C/	.	4C/	.	.	.	4e\	Cum	.	.
=33-	=33-	=33-	=33-	=33-	=33-	=33-	=33-	=33-	=33-
2AA/	Chri-	2AA/	Chri-	2A/	.	4.c\	ſan-	.	.
.	.	.	.	.	.	.	.	4f#X/	.
.	.	.	.	.	.	8c\	-cto	.	.
!LO:TX:t=P:problem=kreska pseudotaktowa	!	!LO:TX:t=P:problem=kreska pseudotaktowa	!	!	!	!	!	!LO:TX:t=P:problem=kreska pseudotaktowa	!
2GG/	.	2GG/	.	4B\	-ſte	4.d\	ſpi-	2g/	-ſte
.	.	.	.	4B\	Cum	.	.	.	.
!	!	!	!	!	!	!LO:TX:t=P:problem=kreska pseudotaktowa	!	!	!
.	.	.	.	.	.	8d\	-ri-	.	.
!	!	!	!	!	!	!	!	!LO:TX:t=P:problem=kreska pseudotaktowa	!
2C/	-ste.	2C/	-ſte	4G/	ſan-	2e\	-tu	0r	.
.	.	.	.	4G/	-cto	.	.	.	.
!LO:TX:t=P:problem=kreska pseudotaktowa	!	!LO:TX:t=P:problem=kreska pseudotaktowa	!	!	!	!	!	!	!
2r	.	2r	.	4.A/	ſpi-	2c/	in	.	.
!	!	!	!	!LO:TX:t=P:problem=kreska pseudotaktowa	!	!	!	!	!
.	.	.	.	8A/	-ri-	.	.	.	.
=34-	=34-	=34-	=34-	=34-	=34-	=34-	=34-	=34-	=34-
2r	.	2r	.	2B\	-tu	4d\	glo-	.	.
.	.	.	.	.	.	8d\	-ri-	.	.
.	.	.	.	.	.	8d\	-a	.	.
!LO:TX:t=P:problem=kreska pseudotaktowa	!	!LO:TX:t=P:problem=kreska pseudotaktowa	!	!LO:TX:t=P:problem=kreska pseudotaktowa	!	!	!	!	!
2C/	in	2C/	in	2G/	in	8e\	De-	.	.
.	.	.	.	.	.	8e\	-i	.	.
.	.	.	.	.	.	8e\	Pa-	.	.
!	!	!	!	!	!	!LO:TX:t=P:problem=kreska pseudotaktowa	!	!	!
.	.	.	.	.	.	8e\	-tris	.	.
4D/	glo-	4D/	glo-	4d\	glo-	2f\	A-	2a\	in
8D/	-ri-	8D/	-ri-	8d\	-ri-	.	.	.	.
8D/	-a	8D/	-a	8d\	-a	.	.	.	.
!	!	!LO:PB:g=original	!	!	!	!LO:TX:t=P:problem=kreska pseudotaktowa	!	!	!
8E\	De-	8E\	De-	8B\	De-	2g\	.	4ee\	glo-
8E\	-i	8E\	-i	8A\	-i	.	.	.	.
8E\	Pa-	8E\	Pa-	8B\	Pa-	.	.	8ee\	-ri-
!	!	!	!	!	!	!	!	!LO:TX:t=P:problem=kreska pseudotaktowa	!
!LO:TX:t=P:problem=kreska pseudotaktowa	!	!LO:TX:t=P:problem=kreska pseudotaktowa	!	!LO:TX:t=P:problem=kreska pseudotaktowa	!	!	!	!LO:TX:b:t=Verte\nSubito	!
8E\	-tris	8E\	-tris	8G/	-tris	.	.	8ee\	-a
!	!	!	!	!LO:PB:g=original	!	!	!	!LO:PB:g=original	!
=35-	=35-	=35-	=35-	=35-	=35-	=35-	=35-	=35-	=35-
2F\	a-	(2F\	a-	2A/	a-	2f\	-men	8cc\	De-
.	.	.	.	.	.	.	.	8b\	-i
.	.	.	.	.	.	.	.	8cc\	Pa-
.	.	.	.	.	.	.	.	8a\	-tris
!LO:TX:t=P:problem=kreska pseudotaktowa	!	!LO:TX:t=P:problem=kreska pseudotaktowa	!	!	!	!	!	!	!
2G\	.	2G\)	.	4d\	.	4r	.	8b\	A-
.	.	.	.	.	.	.	.	8cc\	.
!	!	!	!	!LO:TX:t=P:problem=kreska pseudotaktowa	!	!LO:TX:t=P:problem=kreska pseudotaktowa	!	!	!
.	.	.	.	4B\	-men	4d\	in	2dd\	.
!LO:LB:g=original	!	!	!	!	!	!LO:LB:g=original	!	!	!
2A\	-men	2A\	-men	4e\	in	4a\	glo-	.	.
.	.	.	.	4e\	.	8a\	-ri-	4cc#X\	.
.	.	.	.	.	.	8a\	-a	.	.
!LO:TX:t=P:problem=kreska pseudotaktowa	!	!LO:TX:t=P:problem=kreska pseudotaktowa	!	!	!	!	!	!	!
2r	.	2r	.	4d\	glo-	8f\	De-	4dd\	.
.	.	.	.	.	.	8e\	-i	.	.
!	!	!	!	!	!	!	!	!LO:TX:t=P:problem=kreska pseudotaktowa	!
.	.	.	.	8d\	-ri-	8f\	Pa-	4a\	-men
!	!	!	!	!LO:TX:t=P:problem=kreska pseudotaktowa	!	!LO:TX:t=P:problem=kreska pseudotaktowa	!	!	!
.	.	.	.	8d\	-a	8d\	-tris	.	.
=36-	=36-	=36-	=36-	=36-	=36-	=36-	=36-	=36-	=36-
2A\	in	2A\	in	8c\	De-	4.e\	A-	8ccny\	De-
.	.	.	.	8c\	-i	.	.	8b\	-i
.	.	.	.	8c\	Pa-	.	.	8cc\	Pa-
.	.	.	.	8c\	-tris	8f\	.	8a\	-tris
!	!	!	!	!LO:TX:t=P:problem=kreska pseudotaktowa	!	!	!	!	!
4G\	glo-	4G\	glo-	2B\	a-	8.g\L	.	4.b\	A-
.	.	.	.	.	.	16f\K	.	.	.
8G\	-ri-	8G\	-ri-	.	.	8.d\	.	.	.
!LO:TX:t=P:problem=kreska pseudotaktowa	!	!LO:TX:t=P:problem=kreska pseudotaktowa	!	!	!	!	!	!LO:TX:t=P:problem=kreska pseudotaktowa	!
8G\	-a	8G\	-a	.	.	.	.	8cc\	.
!	!	!	!	!	!	!LO:TX:t=P:problem=kreska pseudotaktowa	!	!	!
.	.	.	.	.	.	16e\Jk	.	.	.
8F\	De-	8F\	De-	2A/	.	8.f\L	.	8.dd\L	.
8F\	-i	8F\	-i	.	.	.	.	.	.
.	.	.	.	.	.	16e\K	.	16cc\K	.
8F\	Pa-	8F\	Pa-	.	.	8.c\	.	8.a\	.
8F\	-tris	8F\	-tris	.	.	.	.	.	.
.	.	.	.	.	.	16d\Jk	.	16b\Jk	.
!LO:TX:t=P:problem=kreska pseudotaktowa	!	!LO:TX:t=P:problem=kreska pseudotaktowa	!	!LO:TX:t=P:problem=kreska pseudotaktowa	!	!LO:TX:t=P:problem=kreska pseudotaktowa	!	!	!
2E\	a-	(2E\	a-	2G/	-men	2e\	.	8cc\L	.
.	.	.	.	.	.	.	.	8g\J	.
.	.	.	.	.	.	.	.	2cc\	.
=37-	=37-	=37-	=37-	=37-	=37-	=37-	=37-	=37-	=37-
2D/	.	2D\)	.	4r	.	2f\	.	.	.
.	.	.	.	4Fny/	in	.	.	4b\	.
!LO:TX:t=P:problem=kreska pseudotaktowa	!	!LO:TX:t=P:problem=kreska pseudotaktowa	!	!	!	!LO:TX:t=P:problem=kreska pseudotaktowa	!	!LO:TX:t=P:problem=kreska pseudotaktowa	!
2C/	-men	2C/	-men	4G/	glo-	[<2e\	-men	2cc\	-men
.	.	.	.	8G/	-ri-	.	.	.	.
!	!	!	!	!LO:TX:t=P:problem=kreska pseudotaktowa	!	!	!	!	!
.	.	.	.	8G/	-a	.	.	.	.
!	!	!	!	!	!	!LO:N:xstem:cue	!	!	!
1r	.	1r	.	8A\	De-	4e\]	.	8cc\	De-
.	.	.	.	8A\	-i	.	.	8b\	-i
.	.	.	.	8A\	Pa-	4c/	in	8cc\	Pa-
.	.	.	.	8A\	-tris	.	.	8a\	-tris
!	!	!	!	!LO:TX:t=P:problem=kreska pseudotaktowa	!	!	!	!LO:TX:t=P:problem=kreska pseudotaktowa	!
.	.	.	.	2B\	a-	4d\	glo-	2g/	a-
.	.	.	.	.	.	8d\	-ri-	.	.
!	!	!	!	!	!	!LO:TX:t=P:problem=kreska pseudotaktowa	!	!	!
.	.	.	.	.	.	8d\	-a	.	.
=38-	=38-	=38-	=38-	=38-	=38-	=38-	=38-	=38-	=38-
2C/	in	2C/	in	4.c\	.	8e\	De-	4g/	-men
.	.	.	.	.	.	8e\	-i	.	.
.	.	.	.	.	.	8e\	Pa-	4g/	in
.	.	.	.	8B\	.	8e\	-tris	.	.
!	!	!	!	!LO:TX:t=P:problem=kreska pseudotaktowa	!	!LO:TX:t=P:problem=kreska pseudotaktowa	!	!LO:LB:g=original	!
4D/	glo-	4D\	glo-	2A/	.	2f\	a-	4dd\	glo-
8D/	-ri-	8D\	-ri-	.	.	.	.	8dd\	-ri-
!LO:TX:t=P:problem=kreska pseudotaktowa	!	!LO:TX:t=P:problem=kreska pseudotaktowa	!	!	!	!	!	!LO:TX:t=P:problem=kreska pseudotaktowa	!
8D/	-a	8D\	-a	.	.	.	.	8dd\	-a
8E\	De-	8E\	De-	4G,/	-men	2g\	.	8b\	De-
8E\	-i	8E\	-i	.	.	.	.	8b\	-i
8E\	Pa-	8E\	Pa-	4G/	in	.	.	8b\	Pa-
8E\	-tris	8E\	-tris	.	.	.	.	8b\	-tris
*custos:G	*	*	*	*	*	*	*	*	*
!LO:TX:t=P:problem=kreska pseudotaktowa	!	!LO:TX:t=P:problem=kreska pseudotaktowa	!	!	!	!	!	!	!
2F\	a-	(2F\	a-	4A/	glo-	4c/	-men	8a\L	A-
.	.	.	.	.	.	.	.	8g\	.
!	!	!	!	!	!	!LO:TX:t=P:problem=kreska pseudotaktowa	!	!	!
.	.	.	.	8A/	-ri-	4c/	in	8fny\	.
!	!	!	!	!	!	!	!	!LO:TX:t=P:problem=kreska pseudotaktowa	!
.	.	.	.	8A/	-a	.	.	8e\J	.
!LO:LB:g=original	!	!	!	!LO:LB:g=original	!	!	!	!	!
=39-	=39-	=39-	=39-	=39-	=39-	=39-	=39-	=39-	=39-
4G\	.	2G\)	.	8B\	De-	4g\	glo-	2d/	men
.	.	.	.	8B\	-i	.	.	.	.
4GG/	.	.	.	8B\	Pa-	8g\	-ri-	.	.
.	.	.	.	8B\	-tris	8g\	-a	.	.
!	!	!LO:LB:g=original	!	!	!	!LO:LB:g=original	!	!	!
4C,</	-men	4C/	-men	8.c\L	a-	8e\	De-	4g/	in
.	.	.	.	.	.	8d\	-i	.	.
.	.	.	.	16B\Jk	.	.	.	.	.
*	*ij	*	*ij	*	*	*	*	*	*
!LO:TX:t=P:problem=kreska pseudotaktowa	!	!LO:TX:t=P:problem=kreska pseudotaktowa	!	!	!	!	!	!LO:TX:t=P:problem=kreska pseudotaktowa	!
4C/	in	4C/	in	8.G/L	.	8e\	Pa-	4cc\	.
!	!	!	!	!	!	!LO:TX:t=P:problem=kreska pseudotaktowa	!	!	!
.	.	.	.	.	.	8c\	-tris	.	.
.	.	.	.	16A/Jk	.	.	.	.	.
4G\	glo-	4G\	glo-	2B\	.	2d\	A-	4b\	glo-
8G\	-ri-	8G\	-ri-	.	.	.	.	8b\	-ri-
8G\	-a	8G\	-a	.	.	.	.	8b\	-a
!	!	!	!	!	!	!LO:TX:t=P:problem=kreska pseudotaktowa	!	!	!
8E\	De-	8E\	De-	[<2c\	.	2e\	.	8g/	De-
8D\	-i	8D/	-i	.	.	.	.	8f/	-i
8E\	Pa-	8E\	Pa-	.	.	.	.	8g/	Pa-
!LO:TX:t=P:problem=kreska pseudotaktowa	!	!LO:TX:t=P:problem=kreska pseudotaktowa	!	!	!	!	!	!LO:TX:t=P:problem=kreska pseudotaktowa	!
8C/	-tris	8C/	-tris	.	.	.	.	8e/	-tris
=40-	=40-	=40-	=40-	=40-	=40-	=40-	=40-	=40-	=40-
!	!	!	!	!LO:N:xstem:cue	!	!	!	!	!
2G\	a-	1GG/	a-	4c\]	.	1d\	.	1g\	A-
.	.	.	.	8B\L	.	.	.	.	.
.	.	.	.	8A\J	.	.	.	.	.
!LO:TX:t=P:problem=kreska pseudotaktowa	!	!	!	!	!	!	!	!	!
2GG/	.	.	.	2B\	.	.	.	.	.
!LO:N:vis=0	!	!	!	!	!	!	!	!	!
!LO:TX:b:t=Credo	!	!LO:N:vis=0	!	!LO:N:vis=0	!	!LO:N:vis=0	!	!LO:N:vis=0	!
1C/;	-men	1C/	-men	1c\	-men	1e\	-men	1g\	-men
==	==	==	==	==	==	==	==	==	==
*-	*-	*-	*-	*-	*-	*-	*-	*-	*-
!!!system-decoration: [(s1,s2,s3,s4)]s5
!!!RDF**kern: < = below
!!!EED: Andrzej Borzym
!!!EEV: 2021-08-02
!!!RDF**kern: > = above
!!!RDF**kern: < = below
!!!ENC: Krzysztof Stępień
!!!END: 2021-07-02
